components/icon/svg/24/action_star-on.svg

<?xml version="1.0" encoding="UTF-8"?>
<svg width="24px" height="24px" viewBox="0 0 24 24" version="1.1" xmlns="http://www.w3.org/2000/svg" xmlns:xlink="http://www.w3.org/1999/xlink">
    <!-- Generator: Sketch 64 (93537) - https://sketch.com -->
    <title>ic-db_action_star-on_24</title>
    <desc>Created with Sketch.</desc>
    <g id="Symbols" stroke="none" stroke-width="1" fill="none" fill-rule="evenodd">
        <g id="24dp-Icon/Action/Star-On" fill="#282D37">
            <path d="M6.4375,21.625 C5.8125,21.625 5.3125,21 5.4375,20.4687 L6.4375,14.7813 L2.2812,10.75 C2.0938,10.5625 2,10.2813 2,10 C2,9.5313 2.375,9.125 2.8438,9.0625 L8.5625,8.2187 L11.0938,3.0625 C11.2812,2.75 11.625,2.5 12,2.5 C12.375,2.5 12.7188,2.7187 12.9062,3.0625 L15.4375,8.2187 L21.1562,9.0625 C21.5625,9.125 22,9.4375 22,10 C22,10.2813 21.9062,10.5625 21.7188,10.75 L17.5938,14.7813 L18.5625,20.4687 C18.6875,21.0937 18.1562,21.625 17.5625,21.625 C17.4062,21.625 17.25,21.5937 17.0938,21.5 L12,18.8437 L6.9062,21.5 C6.75,21.5937 6.5938,21.625 6.4375,21.625 Z" id="🎨-Color"></path>
        </g>
    </g>
</svg>

<svg width="24" height="24" xmlns="http://www.w3.org/2000/svg"><path d="M6.438 21.625c-.625 0-1.125-.625-1-1.156l1-5.688L2.28 10.75C2.094 10.562 2 10.281 2 10c0-.469.375-.875.844-.938l5.719-.843 2.53-5.156c.188-.313.532-.563.907-.563s.719.219.906.563l2.531 5.156 5.72.844c.405.062.843.374.843.937 0 .281-.094.563-.281.75l-4.125 4.031.968 5.688c.125.625-.406 1.156-1 1.156a.882.882 0 01-.468-.125L12 18.844 6.906 21.5a.882.882 0 01-.468.125z" fill="#282D37" fill-rule="evenodd"/></svg>
